X: 10227
T: Djarven
R: mazurka
M: 3/4
K: Gminor
|:D|GG/^F/ DD FG|AB/A/ G^F/G/ A/B/A/F/|GA Bd/B/ A/B/A/^F/|G^F/G/ A/B/A/F/ D2|
GG/^F/ DD FG|AB/A/ G^F/G/ A/B/A/F/|GA Bd/B/ A/B/A/^F/|D/^F/A/F/ G2- G:|
|:d-|dB- Bd- de/d/|c/d/c/A/ ^F/D/F/A/ cd/c/|B/c/B/A/ G/^F/G/A/ B/A/B/c/|A/B/A/^F/ D/F/A/F/ D2|
dB- Bd- de/d/|c/d/c/A/ ^F/D/F/A/ cd/c/|B/c/B/A/ G/^F/G/A/ B/A/B/c/|D/^F/A/F/ G2- G:|

